svgs/sharp-solid/arrows-from-line.svg

<svg xmlns="http://www.w3.org/2000/svg" viewBox="0 0 448 512"><!--! Font Awesome Pro 6.6.0 by @fontawesome - https://fontawesome.com License - https://fontawesome.com/license (Commercial License) Copyright 2024 Fonticons, Inc. --><path d="M128 96L224 0l96 96 0 32-64 0 0 32 0 32-64 0 0-32 0-32-64 0 0-32zM256 360l0 24 64 0 0 32-96 96-96-96 0-32 64 0 0-24 0-32 64 0 0 32zM32 224l384 0 32 0 0 64-32 0L32 288 0 288l0-64 32 0z"/></svg>

<svg xmlns="http://www.w3.org/2000/svg" viewBox="0 0 448 512"><!--! Font Awesome Pro 6.5.2 by @fontawesome - https://fontawesome.com License - https://fontawesome.com/license (Commercial License) Copyright 2024 Fonticons, Inc. --><path d="M128 96L224 0l96 96v32H256v32 32H192V160 128H128V96zM256 360v24h64v32l-96 96-96-96V384h64V360 328h64v32zM32 224H416h32v64H416 32 0V224H32z"/></svg>
